X:1
T: Mr. Robertson of Ladykirk
C:Nathaniel Gow
R:Strathspey
Q: 128
K:C
M:4/4
L:1/16
|:GF|E2G2 G2AB c2E2 D3F|E3G G2G2 c3d e4|ABcB dcBA GEcE D3F|E2G2 cdef e3d c2GF|
E2G2 G2AB c2E2 D3F|E3G G2G2 c3d e4|ABcB dcBA GEcE D3F|E2G2 cdef e3d c2gf|
e2g2 agfe a2f2 d3f|e3g gfed cBcd e4|A2Bc AGFE c2E2 D3F|E2G2 cdef e2d2 c2gf|
e3g agfe a2f2 d2gf|egfe gfed cBcd e4|AcBc GcBc AGFE EDGF|EGAB cdef e2c2 c2:|
